X: 1110
T: Gillan's Apples
R:double jig
N:"collected by Gillan"
B:O'Neill's 1110
Z:Transcribed by henrik.norbeck@mailbox.swipnet.se
M:6/8
L:1/8
K:Amix
(3A/B/c/|dAF FAF|FAF F2d|AFE EFE|EFE EFA|
dAF FEF|DFA d2e|fed cdB|A3 A2:|
d|cAe cAe|cAe edc|dBf dBf|dBf fed|
cAe cAe|cAe e2a|fed cdB|A3 A2:|
d|cBA BAF|dAF D2d|cBA BAF|AFE E2d|
cBA BAF|DFA d2e|fed cdB|A3 A2:|
d|cAA eAA|(f/g/a)f edc|dBB fBB|(f/g/a)f fed|
cAA eAA|fAA cea|fed cdB|A3 A2:|


